!!!COM: Haydn, Franz Joseph
!!!OTL: String Quartet in F Major
!!!OPS: Opus 17
!!!ONM: No. 2
!!!OMD: Menuetto: Poco allegretto
!!!OMV: 2
!!!SCT: H III:26
!!!SCA: Thematisch-bibliographisches Werkevererzeichnis (A. van Hoboken)
!!!YOR: Trautwein Edition
!!!ENC: Frances Bennion
!!!CDT: 1732/3/31/-1809/5/31/
!!!CNT: Oesterreich
!!!YEC: Copyright (c) 1994, 2000 Center for Computer Assisted Research in the Humanities
!!!YEM: Rights to all derivative editions reserved.
!!!YEM: Refer to licensing agreement for further details.
!!!YEN: United States of America
**kern	**kern	**kern	**kern
*k[b-]	*k[b-]	*k[b-]	*k[b-]
*F:	*F:	*F:	*F:
*clefF4	*clefC3	*clefG	*clefG
*M3/4	*M3/4	*M3/4	*M3/4
4FF	4F	2a	2a
4F	4f	.	.
4G	4g	4b-	4b-
=2	=2	=2	=2
4E	4e	2g	2g
4C	4c	.	.
4F	4f	4a	4a
=3	=3	=3	=3
4D	2d	2f	2f
4d	.	.	.
4B-	8B-	4g	4g
.	8G	.	.
=4	=4	=4	=4
[2.B-	4E	[2.c	4c
.	4F	.	4d
.	4G	.	4e
=5	=5	=5	=5
4B-]	2F	2.c_	2.f
4A	.	.	.
[4F	[4f	.	.
=6	=6	=6	=6
4F]	4f]	2.c_	2.g
4E	4e	.	.
4C	4c	.	.
=7	=7	=7	=7
2F	2f	2c]	4a
.	.	.	4dd
4G	4d	4f	4b
=8	=8	=8	=8
2C	2c	2e	4cc
.	.	.	4ee
4G	4d	4f	4b
=9	=9	=9	=9
2C	2c	2e	4cc
.	.	.	4gg
4G	4d	4f	4b
=10	=10	=10	=10
2C	2c	2e	4cc
.	.	.	4ccc
4G	4d	4f	4b
=11	=11	=11	=11
4C	4c	4e	4cc
4C	4c	4e	8cc
.	.	.	8b
4C	4c	4e	8cc
.	.	.	8b
=12	=12	=12	=12
2.C	2.E	2G	4cc
.	.	.	4dd
.	.	4g	4b-
=13	=13	=13	=13
4FF	2.F	2a	2a
4F	.	.	.
4A	.	4cc	4cc
=14	=14	=14	=14
4c	4A	2e-	2e-
4F	4c	.	.
4B-	4B-	4d	4d
=15	=15	=15	=15
4BB-	4r	4dd	4dd
4GG	4d	4b-	4b-
4BB-	4B-	4g	4g
=16	=16	=16	=16
4C	4G	2f	2f
4c	2r	.	.
4B-	.	4e	4e
=17	=17	=17	=17
2A	2c	2.r	4r
.	.	.	4ff
4B-	4d	.	4ff
=18	=18	=18	=18
2G	2B-	2.r	8ff
.	.	.	8ee
.	.	.	4ee
4A	4c	.	4ee
=19	=19	=19	=19
2F	2A	2.r	8ee
.	.	.	8dd
.	.	.	4dd
4G	4B-	.	4dd
=20	=20	=20	=20
4E	4G	2.r	8dd
.	.	.	8cc
2r	2r	.	4cc
.	.	.	4r
=21	=21	=21	=21
4r	2.r	2.aa	2ccc
4f	.	.	.
4f	.	.	4ddd
=22	=22	=22	=22
8f	8dd	2.gg	2bb-
8e	8cc	.	.
4e	4cc	.	.
4e	4cc	.	4ccc
=23	=23	=23	=23
8e	8cc	2.ff	2aa
8d	8b-	.	.
4d	4b-	.	.
4d	4b-	.	4bb-
=24	=24	=24	=24
8d	8b-	2.ee	2gg
8c	8a	.	.
4c	4a	.	.
4c	4a	.	4aa
=25	=25	=25	=25
8c	8a	2.dd	2ff
8B-	8g	.	.
4B-	4g	.	.
4B-	4g	.	4gg
=26	=26	=26	=26
2.B-	4e	2.g	4cc
.	4f	.	4dd
.	4g	.	4ee
=27	=27	=27	=27
4A	4f	4a	4ff
2r	2r	2r	2r
=28	=28	=28	=28
4B-	4B-	4f	4dd
4r	2r	2r	2r
4r	.	.	.
=29	=29	=29	=29
2c	2.c	4f	4a
.	.	4g	4b-
4CC	.	4e	4g
=30	=30	=30	=30
2FF	2F	2f	4f
.	.	.	4a
4C	4G	4B-	4e
=31	=31	=31	=31
2FF	2F	2A	4f
.	.	.	4cc
4C	4G	4B-	4e
=32	=32	=32	=32
2FF	2F	2A	4f
.	.	.	4ff
4C	4G	4B-	4e
=33	=33	=33	=33
4FF	4F	4A	4f
4FF	4c	4A	8f
.	.	.	8e
4FF	4c	4A	8f
.	.	.	8e
=34	=34	=34	=34
4FF	4c	4A	4f
2r	2r	2r	2r
=35	=35	=35	=35
4d	2.r	[2.a	4ff
8d	.	.	8ff
8c#	.	.	8ee
8d	.	.	8ff
8c#	.	.	8ee
=36	=36	=36	=36
4d	2.r	2.a_	4ff
4c#	.	.	4ee
4e	.	.	4gg
=37	=37	=37	=37
2e	2.r	2.a_	2gg
4d	.	.	4ff
=38	=38	=38	=38
2.c#	4r	4a]	2ee
.	4g	4b-	.
.	4g	4b-	4ee
=39	=39	=39	=39
2c#	[2.g	[2.b-	2ee
4d	.	.	4dd
=40	=40	=40	=40
2.e	2.g_	2.b-_	2.cc#
=41	=41	=41	=41
2.d	4g]	4b-]	2.dd
.	4f	4a	.
.	4f	4a	.
=42	=42	=42	=42
2.c	[2.f	2.a	2.ee-
=43	=43	=43	=43
4B-	4f]	4b-	4dd
2r	2r	4dd	4ff
.	.	4dd	4ff
=44	=44	=44	=44
4FF	4r	2dd	2ff
4F	4A	.	.
4F	4A	4cc	4ee-
=45	=45	=45	=45
4G	4B-	4b-	4dd
4E-	4G	4cc	4ee-
4E-	4G	4cc	4ee-
=46	=46	=46	=46
2.E-	2.G	2cc	2ee-
.	.	4e-	4cc
=47	=47	=47	=47
2.F	2F	2d	2b-
.	4A	4e-	8cc
.	.	.	8a
=48	=48	=48	=48
4BB-	4B-	4d	4b-
2r	2r	2r	2r
=49	=49	=49	=49
2.B-	2.f	2.b-	4dd
.	.	.	8dd
.	.	.	8ee-
.	.	.	8dd
.	.	.	8ee-
=50	=50	=50	=50
2.G	[2.g	4b-	4dd
.	.	8b-	4gg
.	.	8cc	.
.	.	8b-	4dd
.	.	8cc	.
=51	=51	=51	=51
2.E	2.g]	2.b-	4cc
.	.	.	8cc
.	.	.	8dd
.	.	.	8cc
.	.	.	8dd
=52	=52	=52	=52
2.F	[2.f	4a	4cc
.	.	8a	4ff
.	.	8b-	.
.	.	8a	4cc
.	.	8b-	.
=53	=53	=53	=53
2.D	2.f]	2.a	4b-
.	.	.	8b-
.	.	.	8cc
.	.	.	8b-
.	.	.	8cc
=54	=54	=54	=54
2.E	[2.e	4g	4b-
.	.	8g	4gg
.	.	8a	.
.	.	8g	4b-
.	.	8a	.
=55	=55	=55	=55
2.C#	2.e]	2.g	4a
.	.	.	8a
.	.	.	8b-
.	.	.	8a
.	.	.	8b-
=56	=56	=56	=56
2D	2.d	2f	4a
.	.	.	4dd
4BB-	.	4d	4g#
=57	=57	=57	=57
4AA	4e	4c#	[2.a
2r	8c#	8e	.
.	8d	8f	.
.	8c#	8e	.
.	8d	8f	.
=58	=58	=58	=58
2.r	4c#	4e	2.a_
.	4e	4g	.
.	4d	4f	.
=59	=59	=59	=59
4AA	4c#	4e	2.a_
2r	8e	8c#	.
.	8f	8d	.
.	8e	8c#	.
.	8f	8d	.
=60	=60	=60	=60
2.r	4e	4c#	2.a_
.	4g	4e	.
.	4f	4d	.
=61	=61	=61	=61
4AA	4e	4c#	4a]
4AA	4e	4c#	4a
4AA	4e	4c#	4a
=62	=62	=62	=62
4AA	4e	4c#	2a
2r	2r	2r	.
.	.	.	4r
==	==	==	==
*-	*-	*-	*-
!!!RWG1: This file contains only pitch and duration data.
!!!RWG2: Transposing instruments are not transposed.
!!!RWG3: Spines may have incompatible meters.
!!!RWG4: Durations of rests and tied notes may be interpreted.
!!!RWG: Key is interpreted using the Humdrum key tool.
!!!GTL: 6 Divertimentos
!!!AFT: stage1
!!!END: 1997/04/15
!!!KEY: 1893173609
!!!EMD: Converted from MuseData to Humdrum Dec 16, 2000, by Andreas Kornstaedt using muse2kern.
!!!EMD: Manual editing by Craig Sapp, Nov 2001
